X:10
T:Kna'ani — Ships Heavy with Purple and Cedar
C:Thalassa OST
M:4/4
L:1/8
Q:1/4=94
%%MIDI program 56
%%MIDI channel 1
V:1 name="Trumpet" clef=treble
V:2 name="Lute" clef=treble
K:Amin
% Phrygian dominant — triumphant but with that exotic edge
V:1
|: E4 A4 | ^G2 A2 B4 | c2 B2 A2 ^G2 | A8 |
   B2 c2 d4 | c2 B2 A2 E2 | F2 ^G2 A4 | E8 :|
V:2
%%MIDI program 25
%%MIDI channel 2
|: E,4 A,4 | E,4 A,4 | A,4 E4 | A,8 |
   B,4 E4 | A,4 E4 | A,4 E4 | E,8 :|
